www/assets/icons/grid_on.svg

<svg xmlns="http://www.w3.org/2000/svg" width="24" height="24" viewBox="0 0 24 24" fill='currentColor'><path d="M20 2H4c-1.1 0-2 .9-2 2v16c0 1.1.9 2 2 2h16c1.1 0 2-.9 2-2V4c0-1.1-.9-2-2-2M8 20H4v-4h4zm0-6H4v-4h4zm0-6H4V4h4zm6 12h-4v-4h4zm0-6h-4v-4h4zm0-6h-4V4h4zm6 12h-4v-4h4zm0-6h-4v-4h4zm0-6h-4V4h4z"/></svg>

<svg width="24" height="24" viewBox="0 0 24 24" xmlns="http://www.w3.org/2000/svg" fill='currentColor'><path d="M20 2H4C2.9 2 2 2.9 2 4V20C2 21.1 2.9 22 4 22H20C21.1 22 22 21.1 22 20V4C22 2.9 21.1 2 20 2ZM8 20H4V16H8V20ZM8 14H4V10H8V14ZM8 8H4V4H8V8ZM14 20H10V16H14V20ZM14 14H10V10H14V14ZM14 8H10V4H14V8ZM20 20H16V16H20V20ZM20 14H16V10H20V14ZM20 8H16V4H20V8Z"/></svg>
